X:1
T: Daggs of Craighouse
C:
R:Jig
Q:180
K:A
M:6/8
L:1/16
A4c2 E4A2|c2B2A2 e6|f4d2 e4c2|B2c2B2 B2G2E2|A4c2 E4A2|c2B2A2 e6|f4d2 e4c2|B2c2B2 A4E2|
A4c2 E4A2|c2B2A2 e6|f4d2 e4c2|B2c2B2 B2G2E2|A4c2 E4A2|c2B2A2 e6|f4d2 e4c2|B2c2B2 A2G2A2|
B4E2 E2F2E2|A2B2c2 e6|f4d2 e4c2|B2c2B2 B2G2A2|B2G2E2 E2F2E2|A2B2c2 e6|f4d2 e4c2|B2c2B2 A2G2A2|
B2G2E2 E2F2E2|A2B2c2 e6|f2e2d2 e2d2c2|B2c2B2 B2G2A2|B2G2E2 E2F2E2|A2B2c2 e6|f4d2 e4c2|B2c2B2 A4A2||
